images/fig7.svg

<?xml version="1.0" standalone="no"?>
<!DOCTYPE svg PUBLIC "-//W3C//DTD SVG 1.1//EN" 
  "http://www.w3.org/Graphics/SVG/1.1/DTD/svg11.dtd">
<!-- Created with ASCIIToSVG (http://9vx.org/~dho/a2s/) -->
<svg width="126px" height="256px" version="1.1"
  xmlns="http://www.w3.org/2000/svg" xmlns:xlink="http://www.w3.org/1999/xlink">
  <defs>
    <filter id="dsFilter" width="150%" height="150%">
      <feOffset result="offOut" in="SourceGraphic" dx="3" dy="3"/>
      <feColorMatrix result="matrixOut" in="offOut" type="matrix" values="0.2 0 0 0 0 0 0.2 0 0 0 0 0 0.2 0 0 0 0 0 1 0"/>
      <feBlend in="SourceGraphic" in2="matrixOut" mode="normal"/>
    </filter>
    <marker id="iPointer"
      viewBox="0 0 10 10" refX="5" refY="5" 
      markerUnits="strokeWidth"
      markerWidth="8" markerHeight="7"
      orient="auto">
      <path d="M 10 0 L 10 10 L 0 5 z" />
    </marker>
    <marker id="Pointer"
      viewBox="0 0 10 10" refX="5" refY="5" 
      markerUnits="strokeWidth"
      markerWidth="8" markerHeight="7"
      orient="auto">
      <path d="M 0 0 L 10 5 L 0 10 z" />
    </marker>
  </defs><g id="boxes" stroke="black" stroke-width="2" fill="none" >
<g id="group0">
	<path id="path0" filter="url(#dsFilter)" fill="#fff" d="M 4.5 18 Q 4.5 8 14.5 8 L 111.5 8 Q 121.5 8 121.5 18 L 121.5 62 Q 121.5 72 111.5 72 L 14.5 72 Q 4.5 72 4.5 62 Z" />
	<text x="26.1" y="44.8" id="text0" fill="#000" stroke="none" style="font-family:LMMono10,monospace;font-size:15.2px" >Piece A </text>

</g>
<g id="group4">
	<path id="path4" filter="url(#dsFilter)" fill="#fff" d="M 4.5 178 Q 4.5 168 14.5 168 L 111.5 168 Q 121.5 168 121.5 178 L 121.5 222 Q 121.5 232 111.5 232 L 14.5 232 Q 4.5 232 4.5 222 Z" />
	<text x="26.1" y="204.8" id="text4" fill="#000" stroke="none" style="font-family:LMMono10,monospace;font-size:15.2px" >Piece B </text>

</g>
</g>
<g id="lines" stroke="black" stroke-width="2" fill="none" >
<g id="group109">
	<path id="path109" marker-start="url(#iPointer)" d="M 58.5 88 L 58.5 120 " />
</g>
<g id="group113">
	<path id="path113" marker-start="url(#iPointer)" d="M 58.5 152 L 58.5 120 " />
</g>
</g>
<g id="text" fill="black" style="font-family:LMMono10,monospace;font-size:15.2px" >
<text x="44.1" y="124.8" id="text1" fill="#000" >TCP</text>
</g>
</svg>

<?xml version="1.0" encoding="UTF-8" standalone="no"?>
<!-- Created with Inkscape (http://www.inkscape.org/) -->

<svg
   xmlns:dc="http://purl.org/dc/elements/1.1/"
   xmlns:cc="http://creativecommons.org/ns#"
   xmlns:rdf="http://www.w3.org/1999/02/22-rdf-syntax-ns#"
   xmlns:svg="http://www.w3.org/2000/svg"
   xmlns="http://www.w3.org/2000/svg"
   version="1.1"
   width="126"
   height="256"
   id="svg2">
  <metadata
     id="metadata35">
    <rdf:RDF>
      <cc:Work
         rdf:about="">
        <dc:format>image/svg+xml</dc:format>
        <dc:type
           rdf:resource="http://purl.org/dc/dcmitype/StillImage" />
        <dc:title></dc:title>
      </cc:Work>
    </rdf:RDF>
  </metadata>
  <defs
     id="defs4">
    <filter
       width="1.5"
       height="1.5"
       color-interpolation-filters="sRGB"
       id="dsFilter">
      <feOffset
         id="feOffset7"
         dy="3"
         dx="3"
         in="SourceGraphic"
         result="offOut" />
      <feColorMatrix
         id="feColorMatrix9"
         values="0.2 0 0 0 0 0 0.2 0 0 0 0 0 0.2 0 0 0 0 0 1 0"
         type="matrix"
         in="offOut"
         result="matrixOut" />
      <feBlend
         in2="matrixOut"
         mode="normal"
         in="SourceGraphic"
         id="feBlend11" />
    </filter>
    <marker
       markerUnits="strokeWidth"
       refX="5"
       refY="5"
       markerWidth="8"
       markerHeight="7"
       orient="auto"
       viewBox="0 0 10 10"
       id="iPointer">
      <path
         d="M 10,0 10,10 0,5 z"
         id="path14" />
    </marker>
    <marker
       markerUnits="strokeWidth"
       refX="5"
       refY="5"
       markerWidth="8"
       markerHeight="7"
       orient="auto"
       viewBox="0 0 10 10"
       id="Pointer">
      <path
         d="M 0,0 10,5 0,10 z"
         id="path17" />
    </marker>
  </defs>
  <g
     id="boxes"
     style="fill:none;stroke:#000000;stroke-width:2">
    <g
       id="group0">
      <path
         d="m 4.5,18 q 0,-10 10,-10 l 97,0 q 10,0 10,10 l 0,44 q 0,10 -10,10 l -97,0 q -10,0 -10,-10 z"
         id="path0"
         style="fill:#ffffff;filter:url(#dsFilter)" />
      <text
         x="38.099998"
         y="44.799999"
         id="text0"
         style="font-size:15.19999981px;fill:#000000;stroke:none;font-family:'LMMono10, monospace'">部品A</text>
    </g>
    <g
       id="group4">
      <path
         d="m 4.5,178 q 0,-10 10,-10 l 97,0 q 10,0 10,10 l 0,44 q 0,10 -10,10 l -97,0 q -10,0 -10,-10 z"
         id="path4"
         style="fill:#ffffff;filter:url(#dsFilter)" />
      <text
         x="42.099998"
         y="204.8"
         id="text4"
         style="font-size:15.19999981px;fill:#000000;stroke:none;font-family:'LMMono10, monospace'">部品B</text>
    </g>
  </g>
  <g
     id="lines"
     style="fill:none;stroke:#000000;stroke-width:2">
    <g
       id="group109">
      <path
         d="m 58.5,88 0,32"
         id="path109"
         style="marker-start:url(#iPointer)" />
    </g>
    <g
       id="group113">
      <path
         d="m 58.5,152 0,-32"
         id="path113"
         style="marker-start:url(#iPointer)" />
    </g>
  </g>
  <g
     transform="translate(-14.677966,0)"
     id="text"
     style="font-size:15.19999981px;fill:#000000;font-family:'LMMono10, monospace'">
    <text
       x="44.099998"
       y="124.8"
       id="text1"
       style="fill:#000000">TCP</text>
  </g>
</svg>
